localPackages/DesignSystem/Sources/DesignSystem/Resources/Assets.xcassets/IconSet/ic-folder-open.imageset/ic-folder-open.svg

<svg width="24" height="24" viewBox="0 0 24 24" fill="none" xmlns="http://www.w3.org/2000/svg">
<g id="ic-folder-open">
<path id="Icon" fill-rule="evenodd" clip-rule="evenodd" d="M3 5.25C3 4.83579 3.33579 4.5 3.75 4.5H7.71111C7.88529 4.5 8.05404 4.56062 8.1884 4.67147L10.6896 6.73493C10.8777 6.8901 11.1139 6.97498 11.3578 6.97498L18.75 6.97509C19.1642 6.97509 19.5 7.31088 19.5 7.72509V9.75H8.85C8.01905 9.75 7.25574 10.208 6.86471 10.9412L3 18.1875V5.25ZM12 19.4999H4.00007L8.18824 11.6471C8.31858 11.4027 8.57302 11.25 8.85 11.25H22.25L17.85 19.5L12 19.4999ZM3.9801 20.9999H3.75C2.50736 20.9999 1.5 19.9925 1.5 18.7499V5.25C1.5 4.00736 2.50736 3 3.75 3H7.71111C8.23365 3 8.7399 3.18187 9.14297 3.5144L11.5194 5.47498L18.75 5.47509C19.9927 5.4751 21 6.48246 21 7.72509V9.75H22.875C23.7243 9.75 24.2673 10.655 23.8676 11.4044L19.1735 20.2059C18.9128 20.6947 18.404 21 17.85 21H4C3.99335 21 3.98672 21 3.9801 20.9999Z" fill="#0F0F0F"/>
</g>
</svg>

<svg xmlns="http://www.w3.org/2000/svg" width="24" height="24" viewBox="0 0 24 24">
  <g class="ic-folder-open">
    <path fill-rule="evenodd" d="M3 5.25a.75.75 0 0 1 .75-.75h3.961a.75.75 0 0 1 .477.171l2.502 2.064c.188.155.424.24.668.24h7.392a.75.75 0 0 1 .75.75V9.75H8.85a2.25 2.25 0 0 0-1.985 1.191L3 18.187V5.25Zm9 14.25H4l4.188-7.853a.75.75 0 0 1 .662-.397h13.4l-4.4 8.25H12ZM3.98 21h-.23a2.25 2.25 0 0 1-2.25-2.25V5.25A2.25 2.25 0 0 1 3.75 3h3.961a2.25 2.25 0 0 1 1.432.514l2.376 1.961h7.231A2.25 2.25 0 0 1 21 7.725V9.75h1.875c.85 0 1.392.905.993 1.654l-4.694 8.802A1.5 1.5 0 0 1 17.85 21H3.98Z" class="Icon"/>
  </g>
</svg>
